T: Cornerstone, The
M: 6/8
L: 1/8
K: Ador
|: B |EAA ABc | edc BAG | EGG AGG | BcB AGD |
EAA ABc | edc Bcd | edc BAG | BAG A2 :|
|: B |cde a2 a | baa bag | edB GBd | ged BAG |
cde a2 a | baa bag | edc BAG | BAG A2 :|
